X: 38587
T: Stone In The Field, The
R: reel
M: 4/4
K: Adorian
EAAG ABcd|eaaf gedB|cdcA B~G3|ABBA GEDG|
EAAG ABcd|eaaf gedB|cBcd efge|dBdB ~A3z:|
eaag ~a3b|c'2ba gedB|cdcA B~G3|ABBA GE D2|
e~a3 baga|agef ~g3a|b2gf gedB|ABBG ~A3z:|

